svg/fluentui-system-icons/ic_fluent_circle_image_28_filled.svg

<svg width="28" height="28" viewBox="0 0 28 28" fill="none" xmlns="http://www.w3.org/2000/svg">
<path d="M14.25 10H17.9836C17.7263 6.09098 14.4741 3 10.5 3C6.35786 3 3 6.35786 3 10.5C3 14.4741 6.09098 17.7263 10 17.9836V14.25C10 11.9028 11.9028 10 14.25 10ZM14.25 11C12.4551 11 11 12.4551 11 14.25V21.75C11 22.3757 11.1768 22.9602 11.4833 23.4561L16.2322 18.7071C17.2085 17.7308 18.7915 17.7308 19.7678 18.7071L24.5167 23.4561C24.8232 22.9602 25 22.3757 25 21.75V14.25C25 12.4551 23.5449 11 21.75 11H14.25ZM23.4561 24.5167L18.7071 19.7678C18.3166 19.3772 17.6834 19.3772 17.2929 19.7678L12.5439 24.5167C13.0398 24.8232 13.6243 25 14.25 25H21.75C22.3757 25 22.9602 24.8232 23.4561 24.5167ZM22 15.5C22 16.3284 21.3284 17 20.5 17C19.6716 17 19 16.3284 19 15.5C19 14.6716 19.6716 14 20.5 14C21.3284 14 22 14.6716 22 15.5Z" fill="#212121"/>
</svg>

<svg xmlns="http://www.w3.org/2000/svg" width="28" height="28"><path d="M14.25 10h3.734A7.5 7.5 0 1 0 10 17.984V14.25A4.25 4.25 0 0 1 14.25 10Zm0 1A3.25 3.25 0 0 0 11 14.25v7.5c0 .626.177 1.21.483 1.706l4.75-4.749a2.5 2.5 0 0 1 3.535 0l4.749 4.75A3.244 3.244 0 0 0 25 21.75v-7.5A3.25 3.25 0 0 0 21.75 11h-7.5Zm9.206 13.517-4.749-4.75a1 1 0 0 0-1.414 0l-4.75 4.75A3.244 3.244 0 0 0 14.25 25h7.5c.626 0 1.21-.177 1.706-.483ZM22 15.5a1.5 1.5 0 1 1-3 0 1.5 1.5 0 0 1 3 0Z"/></svg>
